icon-svg/rooms-terrace.svg

<?xml version="1.0" encoding="UTF-8"?>
<svg width="32px" height="32px" viewBox="0 0 32 32" version="1.1" xmlns="http://www.w3.org/2000/svg" fill="#44739e" xmlns:xlink="http://www.w3.org/1999/xlink">
            <path d="M27.5706164,8.5645 C27.9536164,8.8375 28.1166164,9.3515 27.9116164,9.7755 C27.5866164,10.4465 26.8926164,10.9705 26.0906164,10.9705 C25.5686164,10.9705 25.0926164,10.7495 24.7346164,10.4105 C24.3646164,10.0595 23.7796164,10.0595 23.4096164,10.4105 C23.0506164,10.7495 22.5756164,10.9705 22.0536164,10.9705 C21.5326164,10.9705 21.0566164,10.7495 20.6996164,10.4105 C20.3296164,10.0595 19.7436164,10.0595 19.3736164,10.4105 C19.0146164,10.7495 18.5396164,10.9705 18.0176164,10.9705 C17.6456164,10.9705 17.2996164,10.8545 17.0006164,10.6665 L17.0006164,17.9705 C17.0006164,18.5235 16.5526164,18.9705 16.0006164,18.9705 C15.4476164,18.9705 15.0006164,18.5235 15.0006164,17.9705 L15.0006164,10.6675 C14.7016164,10.8545 14.3546164,10.9705 13.9816164,10.9705 C13.4616164,10.9705 12.9856164,10.7495 12.6276164,10.4105 C12.2576164,10.0595 11.6716164,10.0595 11.3006164,10.4105 C10.9436164,10.7495 10.4676164,10.9705 9.94561644,10.9705 C9.42461644,10.9705 8.94961644,10.7495 8.59161644,10.4105 C8.22061644,10.0595 7.63461644,10.0595 7.26461644,10.4105 C6.90761644,10.7495 6.43161644,10.9705 5.91061644,10.9705 C5.10761644,10.9705 4.41461644,10.4465 4.08961644,9.7755 C3.88361644,9.3515 4.04761644,8.8375 4.42961644,8.5645 L15.3936164,0.2055 C15.7526164,-0.0685 16.2486164,-0.0685 16.6066164,0.2055 L27.5706164,8.5645 Z M23.0003164,19.9708 C24.1043164,19.9708 25.0003164,20.8668 25.0003164,21.9708 C25.0003164,23.0748 24.1043164,23.9708 23.0003164,23.9708 L18.5813164,23.9708 L23.7753164,30.3388 C24.1243164,30.7668 24.0603164,31.3968 23.6323164,31.7458 C23.4463164,31.8978 23.2233164,31.9708 23.0013164,31.9708 C22.7113164,31.9708 22.4233164,31.8448 22.2253164,31.6028 L16.0003164,23.9708 L9.77531644,31.6028 C9.42531644,32.0298 8.79631644,32.0948 8.36831644,31.7458 C7.94031644,31.3968 7.87631644,30.7668 8.22531644,30.3388 L13.4193164,23.9708 L9.00031644,23.9708 C7.89631644,23.9708 7.00031644,23.0748 7.00031644,21.9708 C7.00031644,20.8668 7.89631644,19.9708 9.00031644,19.9708 L23.0003164,19.9708 Z"></path>
</svg>

<svg xmlns="http://www.w3.org/2000/svg" fill="#44739e" viewBox="0 0 24 24"><path d="M27.5706 8.5645c.383.273.546.787.341 1.211-.325.671-1.019 1.195-1.821 1.195-.522 0-.998-.221-1.356-.56-.37-.351-.955-.351-1.325 0-.359.339-.834.56-1.356.56-.521 0-.997-.221-1.354-.56-.37-.351-.956-.351-1.326 0-.359.339-.834.56-1.356.56-.372 0-.718-.116-1.017-.304v7.304c0 .553-.448 1-1 1-.553 0-1-.447-1-1v-7.303c-.299.187-.646.303-1.019.303-.52 0-.996-.221-1.354-.56-.37-.351-.956-.351-1.327 0-.357.339-.833.56-1.355.56-.521 0-.996-.221-1.354-.56-.371-.351-.957-.351-1.327 0-.357.339-.833.56-1.354.56-.803 0-1.496-.524-1.821-1.195-.206-.424-.042-.938.34-1.211l10.964-8.359a.998.998 0 0 1 1.213 0zm-4.5703 11.4063c1.104 0 2 .896 2 2s-.896 2-2 2h-4.419l5.194 6.368c.349.428.285 1.058-.143 1.407a.992.992 0 0 1-.631.225c-.29 0-.578-.126-.776-.368l-6.225-7.632-6.225 7.632c-.35.427-.979.492-1.407.143s-.492-.979-.143-1.407l5.194-6.368h-4.419c-1.104 0-2-.896-2-2s.896-2 2-2z"/></svg>
